X:205
T:Northern Nancy. (p)1670.PLFD.205
M:6/4
L:1/4
Q:3/4=120
S:Playford, Dancing Master,4th Ed.,1670.
O:England
H:1670.
Z:Chris Partingto
K:Bb
D|G2G^F2G|A2BcBA|B>cd^F2G|A3G2:|
|:d|f2dc>BA|B2cd2A|B>cd^F2G|A3G2:|
